static/img/menus/ico-cam-edit.svg

<svg width="20" height="20" viewBox="0 0 20 20" fill="none" xmlns="http://www.w3.org/2000/svg">
<path d="M12.5 2.5H4.5C3.39543 2.5 2.5 3.39543 2.5 4.5V15.5C2.5 16.6046 3.39543 17.5 4.5 17.5H15.5C16.6046 17.5 17.5 16.6046 17.5 15.5V7.5" stroke="currentColor"/>
<path d="M7 11.5L16 2.5L17.5 4L8.5 13L7 11.5Z" fill="currentColor"/>
<path d="M8 13.5L6.5 12L5.5 13V14.5H7L8 13.5Z" fill="currentColor"/>
</svg>

<svg xmlns="http://www.w3.org/2000/svg" width="20" height="20" fill="none" viewBox="0 0 20 20"><path stroke="currentColor" d="M12.5 2.5h-8a2 2 0 0 0-2 2v11a2 2 0 0 0 2 2h11a2 2 0 0 0 2-2v-8"/><path fill="currentColor" d="m7 11.5 9-9L17.5 4l-9 9zM8 13.5 6.5 12l-1 1v1.5H7z"/></svg>
